X: 25665
T: Martin With The Long Ears
R: reel
M: 4/4
K: Dmajor
|:DEFD G3F|EA,A,2 EA,A,2|DEFA BAFA|dBB2 BAFE|
DEFD GAFA|EA,A,2 EA,A,2|G,A,B,D EFGA|1 BAFE D3D:|2 BAFE D3c||
|:d2cd BAA2|DEFA BAFE|DEFA Bcde|fedf eBB2|
[1 d2cd BAA2|DEFA BAFD|A,B,DE FABc|dBAF D3c:|
[2 fedc dcBA|DEFA BAFD|A,B,DE FABc|dBAF D4||

